src/globals/images/social_logo.svg

<svg width="148" height="27" viewBox="0 0 148 27" fill="none" xmlns="http://www.w3.org/2000/svg">
<path d="M22.4302 8.90791C22.446 9.12998 22.446 9.3521 22.446 9.57417C22.446 16.3476 17.2906 24.1522 7.86802 24.1522C4.96509 24.1522 2.26841 23.3114 0 21.8521C0.412451 21.8997 0.808984 21.9155 1.2373 21.9155C3.63257 21.9155 5.83755 21.1065 7.59834 19.7265C5.3458 19.6789 3.45811 18.2036 2.80771 16.1731C3.125 16.2207 3.44224 16.2524 3.77539 16.2524C4.2354 16.2524 4.69546 16.189 5.12373 16.078C2.77603 15.602 1.01519 13.5399 1.01519 11.0494V10.986C1.69727 11.3667 2.49048 11.6046 3.33115 11.6363C1.95107 10.7163 1.04692 9.14585 1.04692 7.36919C1.04692 6.41743 1.30068 5.54497 1.74487 4.78354C4.26709 7.89268 8.05835 9.9231 12.3096 10.1452C12.2303 9.7645 12.1827 9.36797 12.1827 8.97139C12.1827 6.14775 14.4669 3.84766 17.3064 3.84766C18.7816 3.84766 20.1141 4.46631 21.05 5.46567C22.208 5.2436 23.3184 4.81528 24.302 4.22837C23.9212 5.41812 23.1122 6.41748 22.0494 7.05195C23.0805 6.94097 24.0799 6.65537 24.9999 6.25884C24.302 7.27402 23.4295 8.17817 22.4302 8.90791Z" fill="#DADADA"/>
<g clip-path="url(#clip0_137_4576)">
<path d="M59.3174 14.5625L60.0117 10.0381H55.6704V7.10205C55.6704 5.86426 56.2769 4.65771 58.2212 4.65771H60.1948V0.805664C60.1948 0.805664 58.4038 0.5 56.6914 0.5C53.1162 0.5 50.7793 2.66699 50.7793 6.58984V10.0381H46.8052V14.5625H50.7793V25.5H55.6704V14.5625H59.3174Z" fill="#DADADA"/>
</g>
<path d="M94.5049 7.38477C91.3994 7.38477 88.8945 9.88965 88.8945 12.9951C88.8945 16.1006 91.3994 18.6055 94.5049 18.6055C97.6104 18.6055 100.115 16.1006 100.115 12.9951C100.115 9.88965 97.6104 7.38477 94.5049 7.38477ZM94.5049 16.6426C92.498 16.6426 90.8574 15.0068 90.8574 12.9951C90.8574 10.9834 92.4932 9.34766 94.5049 9.34766C96.5166 9.34766 98.1523 10.9834 98.1523 12.9951C98.1523 15.0068 96.5117 16.6426 94.5049 16.6426ZM101.653 7.15527C101.653 7.88281 101.067 8.46387 100.345 8.46387C99.6172 8.46387 99.0361 7.87793 99.0361 7.15527C99.0361 6.43262 99.6221 5.84668 100.345 5.84668C101.067 5.84668 101.653 6.43262 101.653 7.15527ZM105.369 8.4834C105.286 6.73047 104.886 5.17773 103.602 3.89844C102.322 2.61914 100.77 2.21875 99.0166 2.13086C97.21 2.02832 91.7949 2.02832 89.9883 2.13086C88.2402 2.21387 86.6875 2.61426 85.4033 3.89355C84.1191 5.17285 83.7236 6.72559 83.6357 8.47852C83.5332 10.2852 83.5332 15.7002 83.6357 17.5068C83.7188 19.2598 84.1191 20.8125 85.4033 22.0918C86.6875 23.3711 88.2354 23.7715 89.9883 23.8594C91.7949 23.9619 97.21 23.9619 99.0166 23.8594C100.77 23.7764 102.322 23.376 103.602 22.0918C104.881 20.8125 105.281 19.2598 105.369 17.5068C105.472 15.7002 105.472 10.29 105.369 8.4834ZM103.035 19.4453C102.654 20.4023 101.917 21.1396 100.955 21.5254C99.5146 22.0967 96.0967 21.9648 94.5049 21.9648C92.9131 21.9648 89.4902 22.0918 88.0547 21.5254C87.0977 21.1445 86.3604 20.4072 85.9746 19.4453C85.4033 18.0049 85.5352 14.5869 85.5352 12.9951C85.5352 11.4033 85.4082 7.98047 85.9746 6.54492C86.3555 5.58789 87.0928 4.85059 88.0547 4.46484C89.4951 3.89355 92.9131 4.02539 94.5049 4.02539C96.0967 4.02539 99.5195 3.89844 100.955 4.46484C101.912 4.8457 102.649 5.58301 103.035 6.54492C103.606 7.98535 103.475 11.4033 103.475 12.9951C103.475 14.5869 103.606 18.0098 103.035 19.4453Z" fill="#DADADA"/>
<path d="M146.857 7.27452C146.584 6.24804 145.781 5.43962 144.761 5.16527C142.912 4.66675 135.5 4.66675 135.5 4.66675C135.5 4.66675 128.088 4.66675 126.239 5.16527C125.219 5.43966 124.416 6.24804 124.144 7.27452C123.648 9.13506 123.648 13.0169 123.648 13.0169C123.648 13.0169 123.648 16.8988 124.144 18.7593C124.416 19.7858 125.219 20.5605 126.239 20.8349C128.088 21.3334 135.5 21.3334 135.5 21.3334C135.5 21.3334 142.912 21.3334 144.761 20.8349C145.781 20.5605 146.584 19.7858 146.857 18.7593C147.352 16.8988 147.352 13.0169 147.352 13.0169C147.352 13.0169 147.352 9.13506 146.857 7.27452ZM133.076 16.5414V9.49249L139.271 13.017L133.076 16.5414Z" fill="#DADADA"/>
<defs>
<clipPath id="clip0_137_4576">
<rect width="25" height="25" fill="white" transform="translate(41 0.5)"/>
</clipPath>
</defs>
</svg>

<svg xmlns="http://www.w3.org/2000/svg" width="148" height="27" fill="none" xmlns:v="https://vecta.io/nano"><path d="M22.43 8.908l.016.666c0 6.773-5.155 14.578-14.578 14.578A14.48 14.48 0 0 1 0 21.852a10.59 10.59 0 0 0 1.237.063 10.26 10.26 0 0 0 6.361-2.189c-2.253-.048-4.14-1.523-4.791-3.553.317.048.635.079.968.079a5.42 5.42 0 0 0 1.348-.174c-2.348-.476-4.109-2.538-4.109-5.029v-.063a5.16 5.16 0 0 0 2.316.65 5.12 5.12 0 0 1-2.284-4.267c0-.952.254-1.824.698-2.586 2.522 3.109 6.313 5.14 10.565 5.362-.079-.381-.127-.777-.127-1.174 0-2.824 2.284-5.124 5.124-5.124a5.11 5.11 0 0 1 3.744 1.618 10.09 10.09 0 0 0 3.252-1.237 5.11 5.11 0 0 1-2.253 2.824c1.031-.111 2.031-.397 2.951-.793-.698 1.015-1.57 1.919-2.57 2.649z" fill="#dadada"/><g clip-path="url(#A)"><path d="M59.317 14.563l.694-4.524H55.67V7.102c0-1.238.606-2.444 2.551-2.444h1.974V.806S58.404.5 56.691.5c-3.575 0-5.912 2.167-5.912 6.09v3.448h-3.974v4.524h3.974V25.5h4.891V14.563h3.647z" fill="#dadada"/></g><path d="M94.505 7.385a5.6 5.6 0 0 0-5.61 5.61 5.611 5.611 0 1 0 11.221 0 5.6 5.6 0 0 0-5.61-5.61zm0 9.258c-2.007 0-3.648-1.636-3.648-3.648a3.65 3.65 0 0 1 3.648-3.647 3.65 3.65 0 0 1 3.647 3.647c0 2.012-1.641 3.648-3.647 3.648zm7.148-9.487c0 .728-.586 1.309-1.308 1.309-.728 0-1.309-.586-1.309-1.309a1.31 1.31 0 0 1 1.309-1.309 1.31 1.31 0 0 1 1.308 1.309zm3.716 1.328c-.083-1.753-.483-3.306-1.767-4.585s-2.832-1.68-4.585-1.768c-1.807-.103-7.222-.103-9.028 0-1.748.083-3.301.483-4.585 1.763s-1.68 2.832-1.768 4.585c-.103 1.807-.103 7.222 0 9.028.083 1.753.483 3.306 1.768 4.585s2.832 1.68 4.585 1.768a132.58 132.58 0 0 0 9.028 0c1.753-.083 3.305-.483 4.585-1.768s1.679-2.832 1.767-4.585c.103-1.807.103-7.217 0-9.023zm-2.334 10.962c-.381.957-1.118 1.694-2.08 2.08-1.44.571-4.858.439-6.45.439s-5.015.127-6.45-.439c-.957-.381-1.694-1.118-2.08-2.08-.571-1.44-.439-4.858-.439-6.45s-.127-5.015.439-6.45c.381-.957 1.118-1.694 2.08-2.08 1.44-.571 4.858-.439 6.45-.439s5.015-.127 6.45.439c.957.381 1.694 1.118 2.08 2.08.571 1.44.44 4.858.44 6.45s.131 5.015-.44 6.45zm43.822-12.171a2.98 2.98 0 0 0-2.096-2.109c-1.849-.499-9.261-.499-9.261-.499s-7.412 0-9.261.499c-1.02.274-1.823 1.083-2.095 2.109-.496 1.861-.496 5.742-.496 5.742s0 3.882.496 5.742c.272 1.026 1.075 1.801 2.095 2.076 1.849.498 9.261.498 9.261.498s7.412 0 9.261-.498c1.02-.274 1.823-1.049 2.096-2.076.495-1.86.495-5.742.495-5.742s0-3.882-.495-5.742zm-13.781 9.267v-7.05l6.195 3.525-6.195 3.524z" fill="#dadada"/><defs><clipPath id="A"><path fill="#fff" transform="translate(41 .5)" d="M0 0h25v25H0z"/></clipPath></defs></svg>
